packages/core/src/svgs/sun.svg

<svg width="24" height="24" viewBox="0 0 24 24" fill="none" xmlns="http://www.w3.org/2000/svg">
<g clip-path="url(#clip0_31_19470)">
<path d="M0 0H24V24H0V0Z" fill="#F0F3FA"/>
<path d="M12.0001 19.2858C13.9324 19.2858 15.7855 18.5182 17.1518 17.1518C18.5182 15.7855 19.2858 13.9324 19.2858 12.0001C19.2858 10.0678 18.5182 8.21463 17.1518 6.84829C15.7855 5.48196 13.9324 4.71436 12.0001 4.71436C10.0678 4.71436 8.21463 5.48196 6.84829 6.84829C5.48196 8.21463 4.71436 10.0678 4.71436 12.0001C4.71436 13.9324 5.48196 15.7855 6.84829 17.1518C8.21463 18.5182 10.0678 19.2858 12.0001 19.2858Z" fill="url(#paint0_linear_31_19470)"/>
<path d="M10.8816 2.97412V8.05698H11.3102V2.97412H10.8816ZM11.6316 2.97412V8.05698H12.0602V2.97412H11.6316ZM12.6174 8.05269V2.97412H13.0459V8.05698H12.6174V8.05269ZM10.5216 7.03269V3.53984H10.0931V6.17984L8.85021 3.86555L8.47307 4.06698L8.54592 4.19555L8.27592 4.28126L9.03878 6.79698L7.17021 4.92841L6.86592 5.22841L9.33878 7.70126L9.6945 7.48698L8.90164 4.85984L10.1188 7.13126L10.5216 7.03269ZM13.8131 6.08984V3.44126H13.3845V6.93412L13.7874 7.03698L15.2231 4.35841L14.3231 7.34126L14.6788 7.55555L17.1516 5.08698L16.8474 4.78269L14.9788 6.65126L15.7416 4.13126L15.3988 4.02841L15.4331 3.96841L15.0559 3.76269L13.8131 6.08126V6.08984ZM12.4288 21.6855V16.6198H12.0002V21.6984H12.4288V21.6855ZM13.2859 16.6027V21.677H12.8574V16.607H13.2859V16.6027ZM11.5716 21.6855V16.6113H11.1431V21.6898H11.5716V21.6855ZM13.4788 17.6827L13.8816 17.5798L15.1459 19.937L14.3702 17.3656L14.7259 17.1555L17.1988 19.6284L16.8945 19.9284L15.0259 18.0598L15.7845 20.5798L15.5016 20.6656L15.1502 20.8541L13.9074 18.5398V21.1798H13.4788V17.6827ZM9.06021 20.8927L10.3031 18.5741V21.2141H10.7316V17.7213L10.3288 17.6184L8.84164 20.387L9.74164 17.417L9.38592 17.2027L6.91307 19.6756L7.21307 19.9756L9.08592 18.107L8.32307 20.627L8.73449 20.7513L8.74307 20.7213L9.06021 20.8927ZM7.28592 12.4284H2.14307V11.9998H7.28592V12.4284ZM2.60592 13.2855H7.74878V12.857H2.60592V13.2855ZM7.70164 11.687H2.62307V11.2584H7.70164V11.687ZM6.55735 13.727H3.0645V14.1555H5.7045L3.39021 15.3984L3.58735 15.7756L3.62164 15.7584L3.71164 16.067L6.23164 15.3084L4.36307 17.177L4.66307 17.477L7.14021 15.0084L6.92592 14.6527L4.08449 15.5098L6.65592 14.1298L6.55735 13.727ZM6.04307 10.6113L3.72021 9.36841L3.83592 9.15841H3.82307L3.95164 8.74698L6.46735 9.50555L4.59878 7.63698L4.89878 7.33698L7.37164 9.80555L7.15735 10.1655L4.76164 9.43698L6.99449 10.637L6.89164 11.0398H3.39878V10.6113H6.03878H6.04307ZM21.4288 11.9998H16.2859V12.4284H21.4288V11.9998ZM16.2559 11.2284H21.3302V11.657H16.2559V11.2284ZM21.4288 12.857H16.2859V13.2855H21.4288V12.857ZM20.3016 8.81984L20.2074 8.51126L17.6916 9.26983L19.5602 7.40555L19.2559 7.10126L16.7831 9.57412L16.9974 9.92984L18.9131 9.35126L17.1431 10.2984L17.2459 10.7013H20.7388V10.2727H18.0988L20.4131 9.02984L20.3016 8.81555V8.81984ZM17.4131 13.7141L17.3145 14.117L19.8816 15.4927L17.0916 14.6527L16.8774 15.0084L19.3502 17.477L19.6502 17.177L17.7859 15.3084L20.3016 16.067L20.4131 15.707L20.5845 15.3856L18.2702 14.1427H20.9102V13.7141H17.4131ZM9.19735 15.5998L5.60592 19.187L5.30592 18.887L8.89307 15.2955L9.19307 15.5955L9.19735 15.5998ZM6.13735 19.7141L9.72878 16.1227L9.42878 15.8227L5.83307 19.4098L6.13735 19.7141ZM8.49449 14.897L4.90735 18.4841L4.60735 18.1841L8.1945 14.5927L8.49449 14.8927V14.897ZM18.3474 5.46841L14.7559 9.05555L15.0602 9.35555L18.6516 5.76841L18.3474 5.46841ZM14.2245 8.52412L17.8159 4.93269L18.1159 5.23698L14.5288 8.82841L14.2288 8.52841L14.2245 8.52412ZM19.0459 6.16698L15.4545 9.75412L15.7588 10.0541L19.3502 6.46698L19.0459 6.16698ZM15.2445 15.107L18.8359 18.6941L18.5316 18.9941L14.9402 15.407L15.2445 15.107ZM19.3674 18.1627L15.7759 14.5755L15.4759 14.8755L19.0631 18.467L19.3631 18.167L19.3674 18.1627ZM14.5459 15.8056L18.1374 19.3927L17.8374 19.6927L14.2459 16.1056L14.5459 15.8056ZM5.11735 5.95269L8.70878 9.54412L9.00878 9.24412L5.42164 5.65269L5.12164 5.95269H5.11735ZM8.17735 10.0755L4.58592 6.48412L4.88592 6.18412L8.48164 9.77126L8.17735 10.0755ZM5.82021 5.25412L9.40735 8.84555L9.70735 8.54555L6.12021 4.95412L5.82021 5.25412Z" fill="#F0F3FA"/>
<path d="M11.9999 16.9284C12.6471 16.9284 13.288 16.801 13.8859 16.5533C14.4839 16.3056 15.0272 15.9425 15.4849 15.4849C15.9425 15.0272 16.3056 14.4839 16.5533 13.8859C16.801 13.288 16.9284 12.6471 16.9284 11.9999C16.9284 11.3526 16.801 10.7117 16.5533 10.1138C16.3056 9.51582 15.9425 8.97249 15.4849 8.51483C15.0272 8.05717 14.4839 7.69414 13.8859 7.44645C13.288 7.19877 12.6471 7.07129 11.9999 7.07129C10.6927 7.07129 9.43912 7.59055 8.51483 8.51483C7.59055 9.43912 7.07129 10.6927 7.07129 11.9999C7.07129 13.307 7.59055 14.5606 8.51483 15.4849C9.43912 16.4092 10.6927 16.9284 11.9999 16.9284Z" fill="#F8BA3A"/>
<path d="M11.9998 7.28551C10.7495 7.28551 9.55039 7.78219 8.66629 8.66629C7.78219 9.55039 7.28551 10.7495 7.28551 11.9998C7.28551 13.2501 7.78219 14.4492 8.66629 15.3333C9.55039 16.2174 10.7495 16.7141 11.9998 16.7141C13.2501 16.7141 14.4492 16.2174 15.3333 15.3333C16.2174 14.4492 16.7141 13.2501 16.7141 11.9998C16.7141 10.7495 16.2174 9.55039 15.3333 8.66629C14.4492 7.78219 13.2501 7.28551 11.9998 7.28551ZM6.85693 11.9998C6.85693 11.3244 6.98996 10.6557 7.24841 10.0317C7.50686 9.40774 7.88568 8.8408 8.36324 8.36324C8.8408 7.88568 9.40774 7.50686 10.0317 7.24841C10.6557 6.98996 11.3244 6.85693 11.9998 6.85693C12.6752 6.85693 13.3439 6.98996 13.9679 7.24841C14.5918 7.50686 15.1588 7.88568 15.6363 8.36324C16.1139 8.8408 16.4927 9.40774 16.7512 10.0317C17.0096 10.6557 17.1426 11.3244 17.1426 11.9998C17.1426 13.3638 16.6008 14.6719 15.6363 15.6363C14.6719 16.6008 13.3638 17.1426 11.9998 17.1426C10.6358 17.1426 9.32771 16.6008 8.36324 15.6363C7.39877 14.6719 6.85693 13.3638 6.85693 11.9998Z" fill="#F0F3FA"/>
<mask id="mask0_31_19470" style="mask-type:alpha" maskUnits="userSpaceOnUse" x="7" y="7" width="10" height="10">
<path d="M12.0258 16.9969C13.3449 16.9969 14.6099 16.4729 15.5427 15.5402C16.4754 14.6075 16.9994 13.3424 16.9994 12.0234C16.9994 10.7043 16.4754 9.43926 15.5427 8.50653C14.6099 7.5738 13.3449 7.0498 12.0258 7.0498C10.7067 7.0498 9.4417 7.5738 8.50897 8.50653C7.57625 9.43926 7.05225 10.7043 7.05225 12.0234C7.05225 13.3424 7.57625 14.6075 8.50897 15.5402C9.4417 16.4729 10.7067 16.9969 12.0258 16.9969Z" fill="#F0F3FA"/>
</mask>
<g mask="url(#mask0_31_19470)">
<path d="M12.2573 6.83105L11.6016 12.1153H12.2573L12.0001 16.9968L16.8001 16.1396L17.6658 9.44106L15.553 7.58106L12.2573 6.83105Z" fill="#F0F3FA"/>
<path d="M16.2259 9.52693C16.513 9.65979 16.7573 9.87407 16.8002 10.2041C16.843 10.5641 16.783 11.1041 16.6245 11.5669C16.5485 11.7996 16.4325 12.0171 16.2816 12.2098C16.1273 12.3984 15.9216 12.5484 15.6602 12.5826C14.4602 12.7284 13.4616 12.6341 12.7202 12.2355C12.3831 12.0562 12.0937 11.7991 11.8759 11.4855C11.8472 11.5968 11.8099 11.7057 11.7645 11.8112C11.4387 12.5569 10.663 13.1955 9.03875 13.3969C8.78001 13.4248 8.51848 13.3845 8.28015 13.28C8.04181 13.1755 7.83497 13.0104 7.68018 12.8012C7.36478 12.3938 7.16758 11.9075 7.11018 11.3955C7.06304 11.0184 7.19161 10.7012 7.45303 10.4612C7.69732 10.2298 8.05304 10.0669 8.46018 9.93836C9.27018 9.68979 10.4187 9.55264 11.7002 9.39407L11.7259 9.38979C13.033 9.22693 14.2245 9.1755 15.1116 9.26121C15.553 9.30836 15.9387 9.38979 16.2259 9.52693ZM12.2187 10.0498C13.483 9.89979 14.2416 9.71121 15.0559 9.79264C15.4716 9.8355 15.7887 9.91264 15.9987 10.0069C16.213 10.1098 16.2645 10.2041 16.273 10.2684C16.303 10.5384 16.2602 10.9969 16.123 11.3955C16.0545 11.5926 15.9687 11.7555 15.8702 11.8755C15.7759 11.9912 15.6816 12.0426 15.5959 12.0512C14.4473 12.1926 13.573 12.0941 12.973 11.7641C12.3902 11.4512 12.2702 11.0569 12.163 10.2041C12.1587 10.1484 12.2487 10.0884 12.2187 10.0498ZM11.2073 10.2041C10.0587 10.3455 9.30446 10.2384 8.61446 10.4484C8.23304 10.5641 7.97161 10.6969 7.81303 10.8469C7.67161 10.9798 7.61161 11.1298 7.63732 11.3269C7.68875 11.7512 7.85161 12.1712 8.09161 12.4669C8.33161 12.7541 8.62732 12.9084 8.97446 12.8655C10.4745 12.6812 11.0487 12.1198 11.2759 11.6012C11.4816 11.1298 11.4387 10.6455 11.4045 10.2855C11.4002 10.2169 11.3273 10.2212 11.323 10.1655C11.323 10.1141 11.1859 10.2469 11.2073 10.2041Z" fill="#01C1AE"/>
<path d="M12.0516 15.1883C13.1445 15.0983 13.9587 14.2198 13.8816 13.2212L9.93018 13.5426C10.0159 14.5412 10.963 15.2783 12.0516 15.1883Z" fill="#F0F3FA"/>
<path d="M13.9714 13.1267C14.0014 13.1481 14.0143 13.1738 14.0143 13.2081C14.1043 14.2795 13.2257 15.2095 12.0814 15.3038C10.9329 15.3981 9.91715 14.6224 9.82715 13.5467C9.82715 13.4824 9.87001 13.4224 9.93858 13.4181L13.8857 13.0967C13.92 13.0967 13.95 13.1053 13.9714 13.1267ZM10.0843 13.6495C10.2214 14.5067 11.07 15.141 12.06 15.0638C13.0457 14.9781 13.7829 14.2195 13.7829 13.3495L10.0843 13.6495Z" fill="#FE9D51"/>
<path d="M12.4673 14.1166C12.4673 14.0609 12.5101 14.0181 12.5659 14.0181H13.6459C13.668 14.0228 13.6878 14.0349 13.702 14.0524C13.7162 14.07 13.724 14.0919 13.724 14.1145C13.724 14.1371 13.7162 14.159 13.702 14.1765C13.6878 14.1941 13.668 14.2062 13.6459 14.2109H12.5659C12.5404 14.2109 12.516 14.2012 12.4976 14.1836C12.4793 14.166 12.4684 14.142 12.4673 14.1166Z" fill="#FE9A54"/>
<path d="M13.1531 11.8837C12.8339 11.7479 12.5534 11.5351 12.3365 11.2643C12.1196 10.9936 11.9732 10.6734 11.9103 10.3323C11.9103 9.81369 12.4931 9.74512 13.9245 9.74512C15.3603 9.74512 16.2303 9.86083 16.3031 10.238C16.3717 10.8937 16.136 11.8837 15.806 12.0465C15.4803 12.2094 14.2117 12.2823 13.1488 11.8837H13.1531ZM10.6631 12.3208C10.9938 12.1081 11.2504 11.7982 11.3978 11.4336C11.5451 11.0691 11.5759 10.6679 11.486 10.2851C11.366 9.8694 10.706 9.97226 9.4674 10.1651C8.36168 10.3408 7.5174 10.8251 7.61168 11.2494C7.65454 11.9394 8.19026 12.6723 8.50311 12.7965C8.81597 12.9251 9.81883 12.8823 10.6674 12.3251L10.6631 12.3208Z" fill="black"/>
<path d="M16.5345 8.09961L16.9502 9.2139L18.0645 9.62532L16.9502 10.0368L16.5345 11.151L16.1231 10.0368L15.0088 9.62532L16.1231 9.2139L16.5345 8.09961Z" fill="#F0F3FA"/>
</g>
</g>
<defs>
<linearGradient id="paint0_linear_31_19470" x1="12.0001" y1="4.71436" x2="12.0001" y2="19.2858" gradientUnits="userSpaceOnUse">
<stop stop-color="#F5B745"/>
<stop offset="1" stop-color="#FC8B47"/>
</linearGradient>
<clipPath id="clip0_31_19470">
<rect width="24" height="24" fill="white"/>
</clipPath>
</defs>
</svg>

<svg xmlns="http://www.w3.org/2000/svg" width="24" height="24" fill="none" viewBox="0 0 24 24"><g clip-path="url(#a)"><path fill="#F0F3FA" d="M0 0h24v24H0z"/><path fill="url(#b)" d="M12 19.286a7.285 7.285 0 1 0 0-14.57 7.285 7.285 0 0 0 0 14.57"/><path fill="#F0F3FA" d="M10.882 2.974v5.083h.428V2.974zm.75 0v5.083h.428V2.974zm.985 5.079V2.974h.429v5.083h-.429zm-2.095-1.02V3.54h-.429v2.64L8.85 3.866l-.377.201.073.129-.27.085.763 2.516L7.17 4.928l-.304.3 2.473 2.473.355-.214-.792-2.627 1.217 2.271zm3.291-.943V3.44h-.429v3.493l.403.103 1.436-2.679-.9 2.983.356.215 2.473-2.469-.305-.304L14.98 6.65l.763-2.52-.343-.103.034-.06-.377-.205-1.243 2.318zM12.43 21.686V16.62H12v5.078h.429zm.857-5.083v5.074h-.429v-5.07h.429zm-1.714 5.083V16.61h-.429v5.079h.429zm1.907-4.003.403-.103 1.264 2.357-.776-2.571.356-.21 2.473 2.472-.305.3-1.868-1.868.758 2.52-.282.086-.352.188-1.243-2.314v2.64h-.428zm-4.419 3.21 1.243-2.319v2.64h.429v-3.493l-.403-.103-1.487 2.769.9-2.97-.356-.214-2.473 2.473.3.3 1.873-1.869-.763 2.52.411.124.01-.03zm-1.774-8.465H2.143V12h5.143zm-4.68.857h5.143v-.428H2.606zm5.096-1.598H2.623v-.429h5.079zm-1.145 2.04H3.064v.428h2.64L3.39 15.399l.197.378.035-.018.09.309 2.52-.759-1.869 1.869.3.3 2.477-2.469-.214-.355-2.842.857 2.572-1.38zm-.514-3.116L3.72 9.368l.116-.21h-.013l.129-.411 2.515.759L4.6 7.637l.3-.3 2.473 2.469-.215.36-2.395-.729 2.232 1.2-.102.403H3.399v-.429h2.644M21.43 12h-5.143v.428h5.143zm-5.173-.772h5.074v.429h-5.074zm5.173 1.629h-5.143v.429h5.143zM20.302 8.82l-.095-.309-2.515.759 1.868-1.864-.304-.305-2.473 2.473.214.356 1.916-.579-1.77.947.103.403h3.493v-.428h-2.64l2.314-1.243-.111-.214zm-2.889 4.894-.099.403 2.568 1.376-2.79-.84-.215.355 2.473 2.469.3-.3-1.864-1.869 2.516.759.111-.36.171-.321-2.314-1.243h2.64v-.429zM9.197 15.6l-3.591 3.587-.3-.3 3.587-3.591.3.3zm-3.06 4.114 3.592-3.591-.3-.3-3.596 3.587zm2.357-4.817-3.587 3.587-.3-.3 3.587-3.591.3.3zm9.853-9.429-3.591 3.588.304.3 3.592-3.588zm-4.123 3.056 3.592-3.591.3.304-3.587 3.591-.3-.3zm4.822-2.357-3.591 3.587.304.3 3.591-3.587zm-3.801 8.94 3.59 3.587-.303.3-3.592-3.587zm4.122 3.056-3.591-3.588-.3.3 3.587 3.592.3-.3zm-4.821-2.357 3.591 3.587-.3.3-3.591-3.587zM5.117 5.953 8.71 9.544l.3-.3-3.587-3.591-.3.3zm3.06 4.123L4.586 6.483l.3-.3 3.596 3.587zM5.82 5.254l3.587 3.592.3-.3L6.12 4.954z"/><path fill="#F8BA3A" d="M12 16.928a4.928 4.928 0 1 0 0-9.855 4.928 4.928 0 0 0 0 9.855"/><path fill="#F0F3FA" d="M12 7.286a4.714 4.714 0 1 0 0 9.428 4.714 4.714 0 0 0 0-9.428M6.857 12a5.143 5.143 0 1 1 10.286 0 5.143 5.143 0 0 1-10.286 0"/><mask id="c" width="10" height="10" x="7" y="7" maskUnits="userSpaceOnUse" style="mask-type:alpha"><path fill="#F0F3FA" d="M12.026 16.997a4.974 4.974 0 1 0 0-9.948 4.974 4.974 0 0 0 0 9.948"/></mask><g mask="url(#c)"><path fill="#F0F3FA" d="m12.257 6.831-.655 5.284h.655L12 16.997l4.8-.857.866-6.699-2.113-1.86z"/><path fill="#01C1AE" d="M16.226 9.527c.287.133.531.347.574.677.043.36-.017.9-.175 1.363a2.1 2.1 0 0 1-.343.643c-.155.188-.36.338-.622.373-1.2.145-2.198.051-2.94-.348a2.4 2.4 0 0 1-.844-.75q-.043.168-.111.326c-.326.746-1.102 1.384-2.726 1.586A1.49 1.49 0 0 1 7.68 12.8a2.8 2.8 0 0 1-.57-1.405 1.04 1.04 0 0 1 .343-.935c.244-.231.6-.394 1.007-.523.81-.248 1.959-.385 3.24-.544l.026-.004c1.307-.163 2.499-.215 3.386-.129.441.047.827.129 1.114.266m-4.007.523c1.264-.15 2.023-.339 2.837-.257.416.043.733.12.943.214.214.103.266.197.274.261.03.27-.013.729-.15 1.127q-.104.299-.253.48c-.094.116-.188.168-.274.176-1.149.142-2.023.043-2.623-.287-.583-.313-.703-.707-.81-1.56-.004-.056.086-.116.056-.154m-1.012.154c-1.148.141-1.903.034-2.593.244-.381.116-.642.249-.801.399a.52.52 0 0 0-.176.48c.052.424.215.844.455 1.14.24.287.535.441.882.399 1.5-.185 2.075-.746 2.302-1.265.206-.471.163-.956.129-1.315-.005-.07-.078-.065-.082-.12 0-.052-.137.08-.116.038"/><path fill="#F0F3FA" d="M12.052 15.188c1.093-.09 1.907-.968 1.83-1.967l-3.952.322c.086.998 1.033 1.735 2.122 1.645"/><path fill="#FE9D51" d="M13.971 13.127q.044.03.043.081c.09 1.072-.788 2.002-1.933 2.096-1.148.094-2.164-.682-2.254-1.757 0-.065.043-.125.112-.129l3.947-.321q.052-.002.085.03m-3.887.522c.137.858.986 1.492 1.976 1.415.986-.086 1.723-.844 1.723-1.714z"/><path fill="#FE9A54" d="M12.467 14.117c0-.056.043-.099.099-.099h1.08a.099.099 0 0 1 0 .193h-1.08a.1.1 0 0 1-.099-.094"/><path fill="#000" d="M13.153 11.884a2.1 2.1 0 0 1-1.243-1.552c0-.518.583-.587 2.015-.587 1.435 0 2.305.116 2.378.493.069.656-.167 1.646-.497 1.809-.326.162-1.594.235-2.657-.163zm-2.49.437a1.9 1.9 0 0 0 .823-2.036c-.12-.416-.78-.313-2.019-.12-1.105.176-1.95.66-1.855 1.084.043.69.578 1.423.891 1.547.313.13 1.316.086 2.164-.47z"/><path fill="#F0F3FA" d="m16.535 8.1.415 1.114 1.114.411-1.114.412-.415 1.114-.412-1.114-1.114-.412 1.114-.411z"/></g></g><defs><linearGradient id="b" x1="12" x2="12" y1="4.714" y2="19.286" gradientUnits="userSpaceOnUse"><stop stop-color="#F5B745"/><stop offset="1" stop-color="#FC8B47"/></linearGradient><clipPath id="a"><path fill="#fff" d="M0 0h24v24H0z"/></clipPath></defs></svg>
